src/components/assets/work-conditions/4.svg

<svg width="116" height="115" viewBox="0 0 116 115" fill="none" xmlns="http://www.w3.org/2000/svg">
<path opacity="0.7" d="M51.4123 14.0283C23.5056 14.0283 0.959473 36.6351 0.959473 64.4405C0.959473 92.2459 23.5056 114.853 51.4123 114.853C79.2403 114.853 101.865 92.2461 101.865 64.4405C101.865 36.6349 79.2401 14.0283 51.4123 14.0283Z" fill="#2E2E2E"/>
<path opacity="0.7" fill-rule="evenodd" clip-rule="evenodd" d="M51.4123 24.2686C29.1815 24.2686 11.2076 42.228 11.2076 64.4408C11.2076 86.6536 29.1815 104.613 51.4123 104.613C73.6431 104.613 91.6169 86.6538 91.6169 64.4408C91.6169 42.2278 73.6429 24.2686 51.4123 24.2686ZM31.7041 64.441C31.7041 53.5708 40.5334 44.7486 51.4123 44.7486C62.291 44.7486 71.1205 53.5708 71.1205 64.441C71.1205 75.3112 62.2912 84.1334 51.4123 84.1334C40.5334 84.1334 31.7041 75.3112 31.7041 64.441ZM41.1641 64.4408C41.1641 70.1122 45.7363 74.6808 51.4123 74.6808C57.088 74.6808 61.6605 70.1122 61.6605 64.4408C61.6605 58.7694 57.0882 54.2008 51.4123 54.2008C45.7363 54.2008 41.1641 58.7694 41.1641 64.4408ZM21.4559 64.4408C21.4559 80.9824 34.8574 94.3732 51.4123 94.3732C67.967 94.3732 81.3687 80.9824 81.3687 64.4408C81.3687 47.8992 67.9672 34.5084 51.4123 34.5084C34.8574 34.5084 21.4559 47.8992 21.4559 64.4408Z" fill="#414141"/>
<path d="M91.9321 23.9532C96.0314 28.0492 104.94 25.7648 100.84 29.8608L89.8038 40.8884C85.7833 44.9844 79.0826 44.9844 74.9833 40.8884C70.884 36.7924 70.884 30.1758 74.9833 26.0798L86.0197 15.0524C90.0402 10.9564 87.833 19.8572 91.9321 23.9532Z" fill="#FF7671"/>
<g filter="url(#filter0_f)">
<path d="M91.9321 23.9532C96.0314 28.0492 104.94 25.7648 100.84 29.8608L89.8038 40.8884C85.7833 44.9844 79.0826 44.9844 74.9833 40.8884C70.884 36.7924 70.884 30.1758 74.9833 26.0798L86.0197 15.0524C90.0402 10.9564 87.833 19.8572 91.9321 23.9532Z" fill="url(#paint0_linear)"/>
</g>
<path d="M91.9321 24.0319C90.7495 22.8503 90.119 21.3537 89.7247 19.7783L72.4604 36.9499C72.9334 38.3677 73.8005 39.7855 74.9042 40.8883C76.0868 42.0699 77.4268 42.8575 78.9246 43.3301L96.11 26.1585C94.6124 25.7649 93.0358 25.1347 91.9321 24.0319Z" fill="#FF7671"/>
<path d="M95.7161 20.1724C96.5044 20.96 96.5044 22.2992 95.7161 23.0868L53.3043 65.386C52.5161 66.1736 51.1758 66.1736 50.3876 65.386C49.5993 64.5984 49.5993 63.2592 50.3876 62.4716L92.7994 20.0936C93.6665 19.3058 94.9279 19.3058 95.7161 20.1724Z" fill="#7D7C7C"/>
<defs>
<filter id="filter0_f" x="58.3174" y="0.408591" width="57.1674" height="57.1432" filterUnits="userSpaceOnUse" color-interpolation-filters="sRGB">
<feFlood flood-opacity="0" result="BackgroundImageFix"/>
<feBlend mode="normal" in="SourceGraphic" in2="BackgroundImageFix" result="shape"/>
<feGaussianBlur stdDeviation="6.7957" result="effect1_foregroundBlur"/>
</filter>
<linearGradient id="paint0_linear" x1="94.3973" y1="-0.444239" x2="65.4953" y2="14.555" gradientUnits="userSpaceOnUse">
<stop stop-color="#FF7C56"/>
<stop offset="1" stop-color="#FF5D5D"/>
</linearGradient>
</defs>
</svg>

<svg width="116" height="115" fill="none" xmlns="http://www.w3.org/2000/svg"><path opacity=".7" d="M51.412 14.028C23.506 14.028.96 36.635.96 64.44c0 27.806 22.547 50.413 50.453 50.413 27.828 0 50.453-22.607 50.453-50.412 0-27.806-22.625-50.413-50.453-50.413z" fill="#2E2E2E"/><path opacity=".7" fill-rule="evenodd" clip-rule="evenodd" d="M51.412 24.269c-22.23 0-40.204 17.959-40.204 40.172 0 22.213 17.974 40.172 40.204 40.172 22.231 0 40.205-17.96 40.205-40.172 0-22.213-17.974-40.172-40.205-40.172zM31.704 64.44c0-10.87 8.83-19.692 19.708-19.692 10.879 0 19.709 8.822 19.709 19.692 0 10.87-8.83 19.692-19.709 19.692s-19.708-8.822-19.708-19.692zm9.46 0c0 5.671 4.572 10.24 10.248 10.24A10.224 10.224 0 0 0 61.66 64.44c0-5.672-4.572-10.24-10.248-10.24a10.224 10.224 0 0 0-10.248 10.24zm-19.708 0c0 16.541 13.401 29.932 29.956 29.932S81.37 80.983 81.37 64.441c0-16.542-13.402-29.933-29.957-29.933S21.456 47.9 21.456 64.441z" fill="#414141"/><path d="M91.932 23.953c4.1 4.096 13.008 1.812 8.908 5.908L89.804 40.888c-4.02 4.096-10.721 4.096-14.82 0a10.453 10.453 0 0 1 0-14.808L86.02 15.052c4.02-4.096 1.813 4.805 5.912 8.901z" fill="#FF7671"/><g filter="url(#filter0_f)"><path d="M91.932 23.953c4.1 4.096 13.008 1.812 8.908 5.908L89.804 40.888c-4.02 4.096-10.721 4.096-14.82 0a10.453 10.453 0 0 1 0-14.808L86.02 15.052c4.02-4.096 1.813 4.805 5.912 8.901z" fill="url(#paint0_linear)"/></g><path d="M91.932 24.032c-1.183-1.182-1.813-2.678-2.207-4.254L72.46 36.95a10.332 10.332 0 0 0 2.444 3.938 9.725 9.725 0 0 0 4.02 2.442L96.11 26.16c-1.498-.394-3.074-1.024-4.178-2.127z" fill="#FF7671"/><path d="M95.716 20.172c.788.788.788 2.127 0 2.915L53.304 65.386c-.788.788-2.128.788-2.916 0-.789-.788-.789-2.127 0-2.914l42.411-42.378c.867-.788 2.129-.788 2.917.078z" fill="#7D7C7C"/><defs><filter id="filter0_f" x="58.317" y=".409" width="57.167" height="57.143" filterUnits="userSpaceOnUse" color-interpolation-filters="sRGB"><feFlood flood-opacity="0" result="BackgroundImageFix"/><feBlend in="SourceGraphic" in2="BackgroundImageFix" result="shape"/><feGaussianBlur stdDeviation="6.796" result="effect1_foregroundBlur"/></filter><linearGradient id="paint0_linear" x1="94.397" y1="-.444" x2="65.495" y2="14.555" gradientUnits="userSpaceOnUse"><stop stop-color="#FF7C56"/><stop offset="1" stop-color="#FF5D5D"/></linearGradient></defs></svg>
